Numix/48/actions/view-right-new.svg

<svg xmlns="http://www.w3.org/2000/svg" viewBox="0 0 48 48">
 <path d="m 10 6 c -6 0 -6 4 -6 5.93 l 0 34.07 l 40 0 l 0 -34 c 0 -2 0 -6 -6 -6 Z" style="fill:#fff"/>
 <path d="m 10 6 c -6 0 -6 4 -6 5.93 l 0 34.07 l 40 0 l 0 -34 c 0 -2 0 -6 -6 -6 m -28 2 l 28 0 c 4 0 4.125 2 4 4 l 0 32 l -36 0 l 0 -32 c 0 -2 0 -4 4 -4 Z" style="fill:#888"/>
 <path d="m 6 20 l 12 0 l 0 24 l -12 0 Z" style="fill:#000;fill-opacity:0.102"/>
 <g style="fill:#888;fill-opacity:0.902">
  <path d="m 6 18 l 0 2 l 36 0 l 0 -2 Z"/>
  <path d="m 18 20 l 0 24 l 2 0 l 0 -24 Z"/>
 </g>
 <path d="m 48 32 -8 0 0 -8 -8 0 0 8 -8 0 0 8 8 0 0 8 8 0 0 -8 8 0 z" style="fill:#859900"/>
</svg>

<?xml version="1.0" encoding="UTF-8" standalone="no"?>
<svg
   xmlns:dc="http://purl.org/dc/elements/1.1/"
   xmlns:cc="http://creativecommons.org/ns#"
   xmlns:rdf="http://www.w3.org/1999/02/22-rdf-syntax-ns#"
   xmlns:svg="http://www.w3.org/2000/svg"
   xmlns="http://www.w3.org/2000/svg"
   xmlns:sodipodi="http://sodipodi.sourceforge.net/DTD/sodipodi-0.dtd"
   xmlns:inkscape="http://www.inkscape.org/namespaces/inkscape"
   width="48"
   height="48"
   viewBox="0 0 48 48"
   id="svg2"
   version="1.1"
   inkscape:version="0.91 r13725"
   sodipodi:docname="view-right-new.svg">
  <metadata
     id="metadata22">
    <rdf:RDF>
      <cc:Work
         rdf:about="">
        <dc:format>image/svg+xml</dc:format>
        <dc:type
           rdf:resource="http://purl.org/dc/dcmitype/StillImage" />
      </cc:Work>
    </rdf:RDF>
  </metadata>
  <defs
     id="defs20" />
  <sodipodi:namedview
     pagecolor="#ffffff"
     bordercolor="#666666"
     borderopacity="1"
     objecttolerance="10"
     gridtolerance="10"
     guidetolerance="10"
     inkscape:pageopacity="0"
     inkscape:pageshadow="2"
     inkscape:window-width="1366"
     inkscape:window-height="704"
     id="namedview18"
     showgrid="true"
     inkscape:object-nodes="true"
     inkscape:zoom="11.313708"
     inkscape:cx="31.174284"
     inkscape:cy="17.209155"
     inkscape:window-x="0"
     inkscape:window-y="27"
     inkscape:window-maximized="1"
     inkscape:current-layer="svg2">
    <inkscape:grid
       type="xygrid"
       id="grid4150" />
  </sodipodi:namedview>
  <path
     style="fill:#fff"
     d="M 10 6 C 4 6 4 10 4 11.929688 L 4 46 L 44 46 L 44 12 C 44 10 44 6 38 6 Z "
     id="path4" />
  <path
     style="fill:#888"
     d="M 10 6 C 4 6 4 10 4 11.929688 L 4 46 L 44 46 L 44 12 C 44 10 44 6 38 6 Z M 10 8 L 38 8 C 42 8 42.125 10.003906 42 12 L 42 44 L 6 44 L 6 12 C 6 10 6 8 10 8 Z "
     id="path6" />
  <path
     style="fill:#000;fill-opacity:.102"
     d="M 6 20 L 18 20 L 18 44 L 6 44 Z "
     id="path8" />
  <g
     style="fill:#888;fill-opacity:.902"
     id="g10">
    <path
       d="M 6 18 L 6 20 L 42 20 L 42 18 Z "
       id="path12" />
    <path
       d="M 18 20 L 18 44 L 20 44 L 20 20 Z "
       id="path14" />
  </g>
  <path
     style="fill:#859900"
     d="m 48,32 -8,0 0,-8 -8,0 0,8 -8,0 0,8 8,0 0,8 8,0 0,-8 8,0 z"
     id="path16"
     inkscape:connector-curvature="0"
     sodipodi:nodetypes="ccccccccccccc" />
</svg>
